X: 031005
T: Carman's Jig
S: Darley & McCall Collection 
Z: B.Black 
L: 1/8
M: 6/8
R: jig
K: Edor
B2E EFE|B2c d3|B2E EFE|G2F EFG|
B2E EFE|B2c d3|a2f g2e|f2d Bcd :|
e2a a2f|e2f g3|e2a a2f|d3 Bcd|
e2a a2f|e2f g3|a2f g2e|f2d Bcd :|
